!!!OTL: Morgenlied.
!!!ARE: Europa, Mitteleuropa, Deutschland
!!!SCT: A0644
!!!TXL: @@DE
!!!YEM: Copyright 1995, estate of Helmut Schaffrath.
**kern	**text
!! Mixed meters:  3/1; 6/1
*M3/1	*
*met(C|3)	*
*clefC1	*
*k[b-]	*
*F:ion	*
!LO:TX:a:t=jon.	!
!LO:TX:a:t=P:1r, 1r in the source:problem	!
{1f	Aus
=1	=1
0f	mei-
1cc	-nes
=2	=2
*lig	*
1.a	Her-
2g/	.
*Xlig	*
1f	-tʒen
=3	=3
*lig	*
1.e	grun-
2d	.
2e	.
2f	.
*Xlig	*
=4	=4
0g	-de
1g	ſag
=5	=5
*M6/1	*
!LO:TX:a:t=P:coloured notes:problem	!
0a	ich
0b-	dir
!LO:TX:a:t=P:coloured notes:problem	!
1g	Lob
!LO:TX:a:t=P:coloured notes:problem	!
1g	und
!LO:TX:a:t=P:coloured notes:problem	!
=6	=6
*M3/1	*
0f}	Danck,}
{1f	In
=7	=7
0f	die-
1cc	-ſer
=8	=8
*lig	*
1.a	Mor-
2g/	.
*Xlig	*
1f	-gen-
=9	=9
*lig	*
1.e	-ſtun-
2d	.
2e	.
2f	.
*Xlig	*
=10	=10
0g	-de,
1g	dar-
=11	=11
*M6/1	*
!LO:TX:a:t=P:coloured notes:problem	!
0a	-ʒu
0b-	mein
!LO:TX:a:t=P:coloured notes:problem	!
1g	Le-
!LO:TX:a:t=P:coloured notes:problem	!
1g	-ben
!LO:TX:a:t=P:coloured notes:problem	!
=12	=12
*M3/1	*
0f}	-lang,}
{1f	O
=13	=13
0g	Gott
1f	in
=14	=14
0e	dei-
1f	-nem
=15	=15
0g	Thron,
1g	dir
=16	=16
0a	ʒu
1g	Lob,
=17	=17
0cc	Preiß
1g	vnd
=18	=18
*M6/1	*
!LO:TX:a:t=P:coloured notes:problem	!
0a	Eh-
!LO:TX:a:t=P:coloured notes:problem	!
0f}	-ren,
!LO:TX:a:t=P:coloured notes:problem	!
{0a	durch
=19	=19
*M3/1	*
0cc	Chri-
1a	-ſtum
=20	=20
1.a	vn-
2g/	.
1f	-ſern
=21	=21
1.e	Her-
2d	.
2e	.
2f	.
=22	=22
0g	-ren,
1g	ſein
=23	=23
*M6/1	*
!LO:TX:a:t=P:coloured notes:problem	!
0a	ein-
!LO:TX:a:t=P:coloured notes:problem	!
0b-	-ge-
!LO:TX:a:t=P:coloured notes:problem	!
1g	-bor-
!LO:TX:a:t=P:coloured notes:problem	!
1g	-nen
=24	=24
*M3/1	*
0f/ll}	Sohn.
==	==
!!!GTL: Geistliche Volkslieder
!!!AGN: Romanze, Ballade, Lied, religioeses Lied
!! M. Praetorius Mus. Sion. VIII. 1610. No. 253
!!!ONB: ESAC (Essen Associative Code) Database: ALTDEU
!!!AMT: irregular
!!!AIN: vox
!!!EED: Helmut Schaffrath
!!!EEV: 1.0
!!!RDF**kern: l = terminal long
!!!AMD: Ionian
!!!URL-scan: https://rosdok.uni-rostock.de/mcrviewer/recordIdentifier/rosdok_ppn738218359/iview2/phys_0826.iview2?x=108.00678923277815&y=34.27045570826158&scale=0.7106933083589261&rotation=0&layout=singlePageLayout&logicalDiv=log_0007
!!!ENC: Anna Maria Matuszewska
!!!EEV: 2024/25/03
*-	*-
